src/images/instaicon.svg

<?xml version="1.0" encoding="UTF-8"?>
<!DOCTYPE svg  PUBLIC '-//W3C//DTD SVG 1.1//EN'  'http://www.w3.org/Graphics/SVG/1.1/DTD/svg11.dtd'>
<svg clip-rule="evenodd" fill-rule="evenodd" stroke-linejoin="round" stroke-miterlimit="2" version="1.1" viewBox="0 0 600 600" xml:space="preserve" xmlns="http://www.w3.org/2000/svg"><g transform="matrix(1.0162 0 0 1.0162 44 43.838)" fill-rule="nonzero"><path d="m251.92 0.159c-68.418 0-76.997 0.29-103.87 1.516-26.814 1.224-45.127 5.482-61.152 11.71-16.566 6.438-30.615 15.052-44.62 29.057s-22.619 28.054-29.057 44.62c-6.228 16.024-10.486 34.337-11.71 61.151-1.226 26.87-1.515 35.449-1.515 103.87 0 68.417 0.289 76.996 1.515 103.87 1.224 26.814 5.482 45.127 11.71 61.151 6.438 16.566 15.052 30.615 29.057 44.621 14.005 14.005 28.054 22.619 44.62 29.057 16.025 6.227 34.338 10.486 61.152 11.709 26.87 1.226 35.449 1.516 103.87 1.516 68.417 0 76.996-0.29 103.87-1.516 26.814-1.223 45.127-5.482 61.151-11.709 16.566-6.438 30.615-15.052 44.621-29.057 14.005-14.006 22.619-28.055 29.057-44.621 6.227-16.024 10.486-34.337 11.709-61.151 1.226-26.87 1.516-35.449 1.516-103.87 0-68.418-0.29-76.997-1.516-103.87-1.223-26.814-5.482-45.127-11.709-61.151-6.438-16.566-15.052-30.615-29.057-44.62-14.006-14.005-28.055-22.619-44.621-29.057-16.024-6.228-34.337-10.486-61.151-11.71-26.87-1.226-35.449-1.516-103.87-1.516zm0 45.392c67.265 0 75.233 0.256 101.8 1.468 24.562 1.121 37.901 5.225 46.778 8.674 11.759 4.57 20.151 10.03 28.966 18.845 8.816 8.815 14.275 17.208 18.845 28.966 3.45 8.877 7.554 22.216 8.674 46.778 1.212 26.564 1.469 34.532 1.469 101.8 0 67.265-0.257 75.233-1.469 101.8-1.12 24.562-5.224 37.901-8.674 46.778-4.57 11.759-10.029 20.151-18.845 28.966-8.815 8.816-17.207 14.275-28.966 18.845-8.877 3.45-22.216 7.554-46.778 8.674-26.56 1.212-34.527 1.469-101.8 1.469-67.271 0-75.237-0.257-101.8-1.469-24.562-1.12-37.901-5.224-46.778-8.674-11.759-4.57-20.151-10.029-28.967-18.845-8.815-8.815-14.275-17.207-18.844-28.966-3.45-8.877-7.554-22.216-8.675-46.778-1.212-26.564-1.468-34.532-1.468-101.8 0-67.266 0.256-75.234 1.468-101.8 1.121-24.562 5.225-37.901 8.675-46.778 4.569-11.758 10.029-20.151 18.844-28.966 8.816-8.815 17.208-14.275 28.967-18.845 8.877-3.449 22.216-7.553 46.778-8.674 26.564-1.212 34.532-1.468 101.8-1.468z"/><path d="m251.92 336.05c-46.378 0-83.974-37.596-83.974-83.973 0-46.378 37.596-83.974 83.974-83.974 46.377 0 83.973 37.596 83.973 83.974 0 46.377-37.596 83.973-83.973 83.973zm0-213.34c-71.447 0-129.36 57.918-129.36 129.36 0 71.446 57.918 129.36 129.36 129.36 71.446 0 129.36-57.918 129.36-129.36 0-71.447-57.918-129.36-129.36-129.36z" fill="#030404"/><path d="m416.63 117.6c0 16.696-13.535 30.23-30.231 30.23-16.695 0-30.23-13.534-30.23-30.23s13.535-30.23 30.23-30.23c16.696 0 30.231 13.534 30.231 30.23z" fill="#030404"/></g></svg>

<?xml version="1.0" ?><!DOCTYPE svg  PUBLIC '-//W3C//DTD SVG 1.1//EN'  'http://www.w3.org/Graphics/SVG/1.1/DTD/svg11.dtd'><svg height="100%" style="fill-rule:evenodd;clip-rule:evenodd;stroke-linejoin:round;stroke-miterlimit:2;" version="1.1" viewBox="0 0 600 600" width="100%" xml:space="preserve" xmlns="http://www.w3.org/2000/svg" xmlns:serif="http://www.serif.com/" xmlns:xlink="http://www.w3.org/1999/xlink"><g transform="matrix(1.01619,0,0,1.01619,44,43.8384)"><path d="M251.921,0.159C183.503,0.159 174.924,0.449 148.054,1.675C121.24,2.899 102.927,7.157 86.902,13.385C70.336,19.823 56.287,28.437 42.282,42.442C28.277,56.447 19.663,70.496 13.225,87.062C6.997,103.086 2.739,121.399 1.515,148.213C0.289,175.083 0,183.662 0,252.08C0,320.497 0.289,329.076 1.515,355.946C2.739,382.76 6.997,401.073 13.225,417.097C19.663,433.663 28.277,447.712 42.282,461.718C56.287,475.723 70.336,484.337 86.902,490.775C102.927,497.002 121.24,501.261 148.054,502.484C174.924,503.71 183.503,504 251.921,504C320.338,504 328.917,503.71 355.787,502.484C382.601,501.261 400.914,497.002 416.938,490.775C433.504,484.337 447.553,475.723 461.559,461.718C475.564,447.712 484.178,433.663 490.616,417.097C496.843,401.073 501.102,382.76 502.325,355.946C503.551,329.076 503.841,320.497 503.841,252.08C503.841,183.662 503.551,175.083 502.325,148.213C501.102,121.399 496.843,103.086 490.616,87.062C484.178,70.496 475.564,56.447 461.559,42.442C447.553,28.437 433.504,19.823 416.938,13.385C400.914,7.157 382.601,2.899 355.787,1.675C328.917,0.449 320.338,0.159 251.921,0.159ZM251.921,45.551C319.186,45.551 327.154,45.807 353.718,47.019C378.28,48.14 391.619,52.244 400.496,55.693C412.255,60.263 420.647,65.723 429.462,74.538C438.278,83.353 443.737,91.746 448.307,103.504C451.757,112.381 455.861,125.72 456.981,150.282C458.193,176.846 458.45,184.814 458.45,252.08C458.45,319.345 458.193,327.313 456.981,353.877C455.861,378.439 451.757,391.778 448.307,400.655C443.737,412.414 438.278,420.806 429.462,429.621C420.647,438.437 412.255,443.896 400.496,448.466C391.619,451.916 378.28,456.02 353.718,457.14C327.158,458.352 319.191,458.609 251.921,458.609C184.65,458.609 176.684,458.352 150.123,457.14C125.561,456.02 112.222,451.916 103.345,448.466C91.586,443.896 83.194,438.437 74.378,429.621C65.563,420.806 60.103,412.414 55.534,400.655C52.084,391.778 47.98,378.439 46.859,353.877C45.647,327.313 45.391,319.345 45.391,252.08C45.391,184.814 45.647,176.846 46.859,150.282C47.98,125.72 52.084,112.381 55.534,103.504C60.103,91.746 65.563,83.353 74.378,74.538C83.194,65.723 91.586,60.263 103.345,55.693C112.222,52.244 125.561,48.14 150.123,47.019C176.687,45.807 184.655,45.551 251.921,45.551Z" style="fill-rule:nonzero;"/><path d="M251.921,336.053C205.543,336.053 167.947,298.457 167.947,252.08C167.947,205.702 205.543,168.106 251.921,168.106C298.298,168.106 335.894,205.702 335.894,252.08C335.894,298.457 298.298,336.053 251.921,336.053ZM251.921,122.715C180.474,122.715 122.556,180.633 122.556,252.08C122.556,323.526 180.474,381.444 251.921,381.444C323.367,381.444 381.285,323.526 381.285,252.08C381.285,180.633 323.367,122.715 251.921,122.715Z" style="fill:rgb(3,4,4);fill-rule:nonzero;"/><path d="M416.627,117.604C416.627,134.3 403.092,147.834 386.396,147.834C369.701,147.834 356.166,134.3 356.166,117.604C356.166,100.908 369.701,87.374 386.396,87.374C403.092,87.374 416.627,100.908 416.627,117.604Z" style="fill:rgb(3,4,4);fill-rule:nonzero;"/></g></svg>
